X:925
T:Bantry Lasses, The
R:reel
Z:transcribed by Dave Marshall
M:C|
K:D
|: ~F3E D~F3 | G2FG EFGE | ~F3E DFAd | cAGE EDDE |
~F3E D~F3 | G2FG EFGE | ~F3E DFAd | cAGE EDD2 :|
|: Addc d4 | cdef gecd | Addc d3B | cAGE EDD2 |
Addc d4 | cdef gfge | ~f3d efed | cAGE EDD2 :|
